X: 1
T:Graemsay Jig, The
R:Jig
A:Orkney
O:Scotland
M:6/8
L:1/8
K:D
+A3D3+ BAF|A2B d2e|faa baf|e>fe edB|!
+A3D3+ BAF|A2B d2e|faf e2d|d3 -d2B:|!
|:ABd B2A|ABd B2A|faa baf|e>fe edB|!
ABd B2A|ABd B2A|faf e2d|d3 -d2:|!
